icons/code-icon.svg

<svg id="Group_123" data-name="Group 123" xmlns="http://www.w3.org/2000/svg" viewBox="0 0 80 72.598"><defs><style>.cls-1{fill:#a97b3f}</style></defs><path id="Path_200" data-name="Path 200" class="cls-1" d="M76.3 0H3.617A3.59 3.59 0 0 0 0 3.617v51.9a3.644 3.644 0 0 0 3.617 3.617h29.275V65.7h-6.478a1.777 1.777 0 0 0-1.767 1.767v3.365a1.777 1.777 0 0 0 1.767 1.768h27.172a1.777 1.777 0 0 0 1.767-1.767v-3.367a1.777 1.777 0 0 0-1.767-1.766h-6.478v-6.562h29.275A3.59 3.59 0 0 0 80 55.521V3.617A3.717 3.717 0 0 0 76.3 0zM39.958 55.184a2.524 2.524 0 1 1 2.524-2.524 2.531 2.531 0 0 1-2.524 2.524zm33.481-8.665H6.477V6.477h66.961v40.042z"/><path id="Path_201" data-name="Path 201" class="cls-1" d="M28.508 40.79a1.17 1.17 0 0 0 1.6 0l2.86-2.86a1.17 1.17 0 0 0 0-1.6L25.9 29.265l7.067-7.065a1.17 1.17 0 0 0 0-1.6l-2.86-2.86a1.17 1.17 0 0 0-1.6 0L17.74 28.424a1.17 1.17 0 0 0 0 1.6z" transform="translate(-2.767 -2.767)"/><path id="Path_202" data-name="Path 202" class="cls-1" d="M59.125 37.93l2.86 2.86a1.17 1.17 0 0 0 1.6 0l10.766-10.768a1.17 1.17 0 0 0 0-1.6L63.5 17.74a1.17 1.17 0 0 0-1.6 0l-2.86 2.86a1.17 1.17 0 0 0 0 1.6l7.066 7.066-7.066 7.065a1.271 1.271 0 0 0 .085 1.599z" transform="translate(-9.324 -2.767)"/><path id="Path_203" data-name="Path 203" class="cls-1" d="M40.391 42.062h3.449a1.01 1.01 0 0 0 1.01-.762l8.244-23.891a1.112 1.112 0 0 0-1.01-1.509h-3.449a1.01 1.01 0 0 0-1.009.757l-8.244 23.891a1.079 1.079 0 0 0 1.009 1.514z" transform="translate(-6.238 -2.525)"/></svg>

<svg id="Group_123" data-name="Group 123" xmlns="http://www.w3.org/2000/svg" viewBox="0 0 80 72.598">
  <defs>
    <style>
      .cls-1 {
        fill: #a97b3f;
      }
    </style>
  </defs>
  <path id="Path_200" data-name="Path 200" class="cls-1" d="M76.3,0H3.617A3.59,3.59,0,0,0,0,3.617v51.9a3.644,3.644,0,0,0,3.617,3.617H32.892V65.7H26.414a1.777,1.777,0,0,0-1.767,1.767v3.365A1.777,1.777,0,0,0,26.414,72.6H53.586a1.777,1.777,0,0,0,1.767-1.767V67.466A1.777,1.777,0,0,0,53.586,65.7H47.108V59.138H76.383A3.59,3.59,0,0,0,80,55.521V3.617A3.717,3.717,0,0,0,76.3,0ZM39.958,55.184a2.524,2.524,0,1,1,2.524-2.524A2.531,2.531,0,0,1,39.958,55.184Zm33.481-8.665H6.477V6.477H73.438S73.438,46.519,73.438,46.519Z"/>
  <path id="Path_201" data-name="Path 201" class="cls-1" d="M28.508,40.79a1.17,1.17,0,0,0,1.6,0l2.86-2.86a1.17,1.17,0,0,0,0-1.6L25.9,29.265,32.967,22.2a1.17,1.17,0,0,0,0-1.6l-2.86-2.86a1.17,1.17,0,0,0-1.6,0L17.74,28.424a1.17,1.17,0,0,0,0,1.6Z" transform="translate(-2.767 -2.767)"/>
  <path id="Path_202" data-name="Path 202" class="cls-1" d="M59.125,37.93l2.86,2.86a1.17,1.17,0,0,0,1.6,0L74.351,30.022a1.17,1.17,0,0,0,0-1.6L63.5,17.74a1.17,1.17,0,0,0-1.6,0L59.04,20.6a1.17,1.17,0,0,0,0,1.6l7.066,7.066L59.04,36.331A1.271,1.271,0,0,0,59.125,37.93Z" transform="translate(-9.324 -2.767)"/>
  <path id="Path_203" data-name="Path 203" class="cls-1" d="M40.391,42.062H43.84A1.01,1.01,0,0,0,44.85,41.3l8.244-23.891A1.112,1.112,0,0,0,52.084,15.9H48.635a1.01,1.01,0,0,0-1.009.757L39.382,40.548A1.079,1.079,0,0,0,40.391,42.062Z" transform="translate(-6.238 -2.525)"/>
</svg>
